X:1
T:Title
%%score { ( 1 3 ) | ( 2 4 ) }
L:1/8
M:4/4
K:Ab
V:1 treble nm="Grand Piano"
V:3 treble 
V:2 bass 
V:4 bass 
V:1
 z4 z2[Q:1/4=100] [CE]2 | [CA][CA][CA][CA] [CA][DG][EA][EB] | z2 c2[K:bass][K:treble] z4 | %3
 eeee ecBA | B2 [=DB]2 [_DB]2 [DE]2 | [CA][CA][CA][CA] [CA][DG][EA]B | %6
[M:9/8] c2 [_Ge]- [Ge] [Fd]2- [Fd][Fd][Fd] |[M:4/4] c c2 A c2 B2 |[M:3/4] [CA]6 | %9
[M:1/4] [A,C][B,D] |[M:4/4] z4 z2 [Ec]2[K:bass] | F =E2 F B[Fd][Fc][FB] | A A2 A B2 c2 | %13
[M:9/8] B6- B z z |[M:4/4] [CE] [_C=D]2 [=CE] [EA][Ec][EB][EA] | F =E2 F [FB][Fd][Fc][FB] | %16
 [Ee] [Ae]2 [EAc] [CA]2 [DGB]2 |[M:3/4] A6 |] %18
V:2
 z4 z2 [A,,A,]2 | [A,,E,][A,,E,][A,,E,][A,,E,] [A,,E,][B,,E,][C,A,][D,G,] | %2
 [A,E]2 .[E,A,E]2 [A,,A,]2 [A,,A,]2 | [A,CE][A,CE][A,CE][A,CE] [A,CE][A,E][G,B,E][F,B,=D] | %4
 [E,G,E]2 [B,,A,]2 [E,G,]2 [E,G,]2 | [A,,A,][A,,A,][A,,E,][A,,E,] [A,,E,][B,,E,][C,A,][E,G,E] | %6
[M:9/8] [A,E]2 [C,A,]- [C,A,] [D,A,]2- [D,A,][D,A,][D,A,] | %7
[M:4/4] [E,A,E] [E,A,E]2 [E,CE] [E,A,E]2 [E,G,D]2 |[M:3/4] [A,,E,A,]6 |[M:1/4] [A,,E,][A,,E,] | %10
[M:4/4] [A,,A,] [A,,A,]2 [A,,A,] C,A,, .[B,,A,]2 | %11
 [D,A,D] [D,G,D]2 [D,A,D] [D,F,D][B,,B,][C,=A,][D,B,] | [E,CE] [E,CE]2 [E,CE] [F,B,=D]2 [F,A,D]2 | %13
[M:9/8] [E,G,E]2 [F,A,] [F,A,] [E,G,]2- [E,G,]A,B, | %14
[M:4/4] [A,,A,] [A,,A,]2 [A,,A,] [C,A,][A,,A,][B,,G,][C,A,] | %15
 [D,A,D] [D,G,D]2 [D,A,D] [D,A,][B,,B,][C,=A,][D,B,] | [E,C] [E,C]2 E, E,2 E,2 |[M:3/4] z2 DD C2 |] %18
V:3
 x8 | x8 | c2 z[K:bass] C,[K:treble] [Ec]2 [Ec]2 | x8 | x8 | x8 |[M:9/8] x9 |[M:4/4] x8 | %8
[M:3/4] x6 |[M:1/4] x2 |[M:4/4] [CE] [_C=D]2 [=CE] [A,EA]2 z[K:bass] C, | x8 | x8 | %13
[M:9/8] z2 =D D _D2- DCD |[M:4/4] x8 | x8 | x8 |[M:3/4] C2 FF E2 |] %18
V:4
 x8 | x8 | x8 | x8 | x8 | x8 |[M:9/8] x9 |[M:4/4] x8 |[M:3/4] x6 |[M:1/4] x2 |[M:4/4] x8 | x8 | %12
 x8 |[M:9/8] z3 z3 z [A,,E,]2 |[M:4/4] x8 | x8 | x8 |[M:3/4] A,,6 |] %18

